X: 1519
T: the Piper's Son
T: ma.c an .piobaire.
R: reel
B: O'Neill's 1850 "Music of Ireland" #1519
O: J.O'Neill
Z: transcribed by John B. Walsh, walsh@math.ubc.ca 8/23/96
Z: Compacted via repeats and multiple endings [JC]
M: C|
L: 1/8
K: Em
|: BEE^c dcdB | A2 ((3FED) FA A2 | BEEF GAB^c |1 d^cdB e2 d=c :|2 dBA=c BE E2 |]| {f}e^def gfge | ^defg afdf |
| e^def gfe^c | dBA=c BE E2 || {f}e^def gfe^c | ^defg afdf | g2 f^d e^c=dA | ((3B^cd) A=c BE E2 |]
